X:1
T:River Waltz
T:River Waltz
T:Anonymous First Publication 1851
T:by IMSLP -  Public Domain
C:Anonymous First Publication 1851
Z:by IMSLP -  Public Domain
%%score { 1 | 2 }
L:1/8
Q:1/4=89
M:3/8
K:Eb
V:1 treble nm="Piano" snm="Pno."
V:2 bass 
V:1
"^89" [EG]/[EG]/ | [EG]2 ([GB]/[FA]/) | [EG]2 ([GB]/[FA]/) | [GB]2 ([eg]/[ce]/) | %4
 [ce]2 [Ac]/[Ac]/ | ([Ac][GB])[GB] | ([GB][Ge])[EG] | ([EG][DF])[DF] | .[DF].[EG].[FA] | %9
 [EG]2 ([GB]/[FA]/) | [FA]2 ([Ac]/[GB]/) | (B>GB/e/) | (c>fe/d/) | (c>ea/c'/) | (b>af/d/) | %15
 [Af][Ge][Ge] | [Ge]2 :: [eg]/[df]/ | [df]2 [f=a] | [fb]2 [fb] |{/f} ([fc']>=af/a/) | [fb]2 [fd'] | %22
 [fc'][fc'][fc'] | ([fc']/e'/c'/=a/f/a/) | ([ec'][db])[db] | (b/c'/b/_a/g/f/) | [Bg]2 [Bg] | %27
 [Ge]2 [GB] | [eac']2 [eac'] | [cac']2 [cfa] | ([ec']>bg/e/) | ([db]>af/d/) | ([Af][Ge][Ge]) | %33
 [Ge]2 z :| [EG]/[EG]/ | [EG]2 ([GB]/[FA]/) | [EG]2 ([Ac]/[GB]/) | [GB]2 ([eg]/[ce]/) | %38
 [ce]2 [Ac]/[Ac]/ | [Ac][GB][GB] | ([GB][Ge])[EG] | ([EG][DF])[DF] | .[DF].[EG].[FA] | %43
 [EG]2 ([GB]/[FA]/) | [FA]2 ([Ac]/[GB]/) | (B>GB/e/) | (c>fe/d/) | (c>ea/c'/) | (b>af/d/) | %49
 ([Af][Ge])[Ge] | [Ge]2!D.C.! |] %51
V:2
 z | E,,E,E, | E,,E,E, | E,,E,E, | A,,A,A, | B,,B,B, | B,,B,B, | B,,B,B, | [A,B,][G,B,][F,B,] | %9
 E,,E,E, | E,,E,E, | [E,,E,][E,G,B,][E,G,B,] | [E,,E,][E,G,B,][E,G,B,] | [A,,A,][A,CE][A,CE] | %14
 [B,,B,][B,DF][B,DF] | E,[B,E][B,E] | [E,B,E]2 :: z | [B,,B,][B,DF][CEF] | [D,D][DF][DF] | %20
 [E,E][EF=A][EFA] | [D,D][DF][DF] | [=A,,=A,][A,CF][A,CF] | [F,,F,][F,CE][F,CE] | %24
 [B,,B,][B,DF][B,DF] | [B,,B,][B,DF][B,DF] | E,[B,E][B,E] | E,[B,E][B,E] | [A,,A,][A,CE][A,CE] | %29
 [A,,A,][A,CF][A,CF] | [B,,B,][B,EG][B,EG] | [B,,B,][B,DFA][B,DFA] | E,[E,B,E][E,B,E] | %33
 [E,B,E]2 z :| z | E,,E,E, | E,,E,E, | E,,E,E, | A,,A,A, | B,,B,B, | B,,B,B, | B,,B,B, | %42
 [A,B,][G,B,][F,B,] | E,,E,E, | E,,E,E, | [E,,E,][E,G,B,][E,G,B,] | [E,,E,][E,G,B,][E,G,B,] | %47
 [A,,A,][A,CE][A,CE] | [B,,B,][B,DF][B,DF] | E,[B,E][B,E] | [E,B,E]2 |] %51

